packages/icons/general/Empty.svg

<svg xmlns="http://www.w3.org/2000/svg" width="60" height="61" fill="none" viewBox="0 0 60 61">
    <g clip-path="url(#clip0_915_73849)">
        <path fill="url(#paint0_linear_915_73849)" d="M58.75 48.625C58.75 53.8027 46.158 58 30.625 58C15.092 58 2.5 53.8027 2.5 48.625C2.5 45.9041 5.9773 43.454 11.5314 41.7414C11.5314 41.9258 11.5314 42.1211 11.5314 42.1211L29.9414 49.5625L48.344 42.1113C48.344 42.1113 48.344 41.7305 48.344 41.3441C54.693 43.063 58.75 45.6861 58.75 48.625Z"/>
        <path fill="#699EFF" d="M48.3499 23.4005L29.9337 30.9053L29.9335 17.1548L48.3499 23.4005Z"/>
        <path fill="#82AEFF" d="M29.9343 17.1548V30.8613L11.5179 23.4001L29.9343 17.1548Z"/>
        <g filter="url(#filter0_b_915_73849)">
            <path fill="#7DABFF" fill-opacity="0.5" d="M11.5179 42.1342L29.9339 49.5916V30.8574L11.5179 23.401V42.1342Z"/>
        </g>
        <g filter="url(#filter1_b_915_73849)">
            <path fill="#7AA9FF" fill-opacity="0.32" d="M29.9345 30.8574V49.5911L48.3505 42.1342V23.4005L29.9345 30.8574Z"/>
        </g>
        <g filter="url(#filter2_b_915_73849)">
            <path fill="#6CA0FF" fill-opacity="0.2" d="M0 27.9694L18.416 35.4656L29.9347 30.8971L11.5178 23.401L0 27.9694ZM29.9347 30.8971L41.453 35.4656L59.869 27.9694L48.3507 23.4005L29.9347 30.8971Z"/>
        </g>
        <g filter="url(#filter3_b_915_73849)">
            <path fill="#1C68F3" fill-opacity="0.2" fill-rule="evenodd" d="M21.1648 14.0147C19.8312 14.372 19.0397 15.7429 19.397 17.0765L20.3676 20.6988C20.725 22.0324 22.096 22.8238 23.4297 22.4665L25.8443 21.8195L26.5232 22.2114C26.571 22.239 26.6321 22.2226 26.6598 22.1748L27.0517 21.4959L27.2309 21.4479L27.7686 21.3039L29.4665 20.8489C30.8002 20.4915 31.5916 19.1207 31.2343 17.787L30.2637 14.1648C29.9064 12.8311 28.5355 12.0397 27.2018 12.397L21.1648 14.0147ZM23.0626 18.6825C23.396 18.5932 23.5939 18.2505 23.5046 17.9171C23.4152 17.5837 23.0725 17.3858 22.7391 17.4751C22.4057 17.5645 22.2078 17.9072 22.2971 18.2406C22.3865 18.574 22.7292 18.7719 23.0626 18.6825ZM25.9194 17.27C26.0087 17.6034 25.8108 17.9461 25.4774 18.0355C25.144 18.1248 24.8013 17.927 24.712 17.5935C24.6226 17.2601 24.8205 16.9174 25.1539 16.8281C25.4873 16.7387 25.83 16.9366 25.9194 17.27ZM27.8922 17.3884C28.2257 17.2991 28.4235 16.9564 28.3342 16.623C28.2448 16.2896 27.9021 16.0917 27.5687 16.181C27.2353 16.2704 27.0374 16.6131 27.1268 16.9465C27.2161 17.2799 27.5588 17.4778 27.8922 17.3884Z" clip-rule="evenodd"/>
        </g>
    </g>
    <defs>
        <filter id="filter0_b_915_73849" width="26.416" height="34.1906" x="7.51788" y="19.401" color-interpolation-filters="sRGB" filterUnits="userSpaceOnUse">
            <feFlood flood-opacity="0" result="BackgroundImageFix"/>
            <feGaussianBlur in="BackgroundImage" stdDeviation="2"/>
            <feComposite in2="SourceAlpha" operator="in" result="effect1_backgroundBlur_915_73849"/>
            <feBlend in="SourceGraphic" in2="effect1_backgroundBlur_915_73849" mode="normal" result="shape"/>
        </filter>
        <filter id="filter1_b_915_73849" width="26.416" height="34.1906" x="25.9345" y="19.4005" color-interpolation-filters="sRGB" filterUnits="userSpaceOnUse">
            <feFlood flood-opacity="0" result="BackgroundImageFix"/>
            <feGaussianBlur in="BackgroundImage" stdDeviation="2"/>
            <feComposite in2="SourceAlpha" operator="in" result="effect1_backgroundBlur_915_73849"/>
            <feBlend in="SourceGraphic" in2="effect1_backgroundBlur_915_73849" mode="normal" result="shape"/>
        </filter>
        <filter id="filter2_b_915_73849" width="67.869" height="20.065" x="-4" y="19.4005" color-interpolation-filters="sRGB" filterUnits="userSpaceOnUse">
            <feFlood flood-opacity="0" result="BackgroundImageFix"/>
            <feGaussianBlur in="BackgroundImage" stdDeviation="2"/>
            <feComposite in2="SourceAlpha" operator="in" result="effect1_backgroundBlur_915_73849"/>
            <feBlend in="SourceGraphic" in2="effect1_backgroundBlur_915_73849" mode="normal" result="shape"/>
        </filter>
        <filter id="filter3_b_915_73849" width="20.0088" height="18.241" x="15.3112" y="8.31124" color-interpolation-filters="sRGB" filterUnits="userSpaceOnUse">
            <feFlood flood-opacity="0" result="BackgroundImageFix"/>
            <feGaussianBlur in="BackgroundImage" stdDeviation="2"/>
            <feComposite in2="SourceAlpha" operator="in" result="effect1_backgroundBlur_915_73849"/>
            <feBlend in="SourceGraphic" in2="effect1_backgroundBlur_915_73849" mode="normal" result="shape"/>
        </filter>
        <linearGradient id="paint0_linear_915_73849" x1="30.625" x2="30.625" y1="39.25" y2="50.5987" gradientUnits="userSpaceOnUse">
            <stop stop-color="#3E7DEF" stop-opacity="0.29"/>
            <stop offset="1" stop-color="#8DB3F9" stop-opacity="0"/>
        </linearGradient>
        <clipPath id="clip0_915_73849">
            <rect width="60" height="60" fill="white" transform="translate(0 0.5)"/>
        </clipPath>
    </defs>
</svg>

<svg xmlns="http://www.w3.org/2000/svg" width="60" height="61" fill="none">
    <g clip-path="url(#Empty_svg__a)">
        <path fill="url(#Empty_svg__b)" d="M58.75 48.625C58.75 53.803 46.158 58 30.625 58S2.5 53.803 2.5 48.625c0-2.72 3.477-5.171 9.031-6.884v.38l18.41 7.441 18.403-7.45v-.768c6.349 1.719 10.406 4.342 10.406 7.281Z"/>
        <path fill="#699EFF" d="m48.35 23.4-18.416 7.505v-13.75L48.35 23.4Z"/>
        <path fill="#82AEFF" d="M29.934 17.155V30.86L11.518 23.4l18.416-6.246Z"/>
        <g filter="url(#Empty_svg__c)">
            <path fill="#7DABFF" fill-opacity=".5" d="m11.518 42.134 18.416 7.458V30.857l-18.416-7.456v18.733Z"/>
        </g>
        <g filter="url(#Empty_svg__d)">
            <path fill="#7AA9FF" fill-opacity=".32" d="M29.934 30.857v18.734l18.416-7.457V23.401l-18.416 7.456Z"/>
        </g>
        <g filter="url(#Empty_svg__e)">
            <path fill="#6CA0FF" fill-opacity=".2" d="m0 27.97 18.416 7.496 11.519-4.569-18.417-7.496L0 27.969Zm29.935 2.927 11.518 4.569 18.416-7.497L48.351 23.4l-18.416 7.497Z"/>
        </g>
        <g filter="url(#Empty_svg__f)">
            <path fill="#1C68F3" fill-opacity=".2" fill-rule="evenodd" d="M21.165 14.015a2.5 2.5 0 0 0-1.768 3.061l.97 3.623a2.5 2.5 0 0 0 3.063 1.767l2.414-.646.68.391a.1.1 0 0 0 .136-.036l.392-.68.179-.047.538-.144 1.698-.455a2.5 2.5 0 0 0 1.767-3.062l-.97-3.622a2.5 2.5 0 0 0-3.062-1.768l-6.037 1.618Zm1.898 4.668a.625.625 0 1 0-.324-1.208.625.625 0 0 0 .324 1.207Zm2.856-1.413a.625.625 0 1 1-1.207.323.625.625 0 0 1 1.207-.323Zm1.973.118a.625.625 0 1 0-.323-1.207.625.625 0 0 0 .323 1.207Z" clip-rule="evenodd"/>
        </g>
    </g>
    <defs>
        <filter id="Empty_svg__c" width="26.416" height="34.191" x="7.518" y="19.401" color-interpolation-filters="sRGB" filterUnits="userSpaceOnUse">
            <feFlood flood-opacity="0" result="BackgroundImageFix"/>
            <feGaussianBlur in="BackgroundImage" stdDeviation="2"/>
            <feComposite in2="SourceAlpha" operator="in" result="effect1_backgroundBlur_915_73849"/>
            <feBlend in="SourceGraphic" in2="effect1_backgroundBlur_915_73849" result="shape"/>
        </filter>
        <filter id="Empty_svg__d" width="26.416" height="34.191" x="25.934" y="19.401" color-interpolation-filters="sRGB" filterUnits="userSpaceOnUse">
            <feFlood flood-opacity="0" result="BackgroundImageFix"/>
            <feGaussianBlur in="BackgroundImage" stdDeviation="2"/>
            <feComposite in2="SourceAlpha" operator="in" result="effect1_backgroundBlur_915_73849"/>
            <feBlend in="SourceGraphic" in2="effect1_backgroundBlur_915_73849" result="shape"/>
        </filter>
        <filter id="Empty_svg__e" width="67.869" height="20.065" x="-4" y="19.401" color-interpolation-filters="sRGB" filterUnits="userSpaceOnUse">
            <feFlood flood-opacity="0" result="BackgroundImageFix"/>
            <feGaussianBlur in="BackgroundImage" stdDeviation="2"/>
            <feComposite in2="SourceAlpha" operator="in" result="effect1_backgroundBlur_915_73849"/>
            <feBlend in="SourceGraphic" in2="effect1_backgroundBlur_915_73849" result="shape"/>
        </filter>
        <filter id="Empty_svg__f" width="20.009" height="18.241" x="15.311" y="8.311" color-interpolation-filters="sRGB" filterUnits="userSpaceOnUse">
            <feFlood flood-opacity="0" result="BackgroundImageFix"/>
            <feGaussianBlur in="BackgroundImage" stdDeviation="2"/>
            <feComposite in2="SourceAlpha" operator="in" result="effect1_backgroundBlur_915_73849"/>
            <feBlend in="SourceGraphic" in2="effect1_backgroundBlur_915_73849" result="shape"/>
        </filter>
        <linearGradient id="Empty_svg__b" x1="30.625" x2="30.625" y1="39.25" y2="50.599" gradientUnits="userSpaceOnUse">
            <stop stop-color="#3E7DEF" stop-opacity=".29"/>
            <stop offset="1" stop-color="#8DB3F9" stop-opacity="0"/>
        </linearGradient>
        <clipPath id="Empty_svg__a">
            <path fill="#fff" d="M0 0h60v60H0z" transform="translate(0 .5)"/>
        </clipPath>
    </defs>
</svg>
